X: 39
T:Arthur Darley's Jig
T:Swedish Jig, The
T:Bruckless Shore
F:http://blackrosetheband.googlepages.com/ABCTUNES.ABC May 2009
M:6/8 % But second bar is 9/8
L:1/8
C:Arthur Darley
R:jig
D:Paddy Glackin: Ceol ar an bhFidil le Paddy Glackin
D:Arty McGlynn: McGlynn's Fancy
H:"Bruckless Shore" is the original title.
Z:id:hn-jig-68
K:D
"D"~A3 AGF|"A"EDC "D"D3 | d2e "(G)"fgf | "A"edc "D"d3 |
"D"d2e "(G)"fgf | "A"edc "D"dAA | "(G)"BAG "D"FED|M:9/8 "A"EDC "D"DA,B, "A"CDE|
M:6/8 "D"Ddd "A"Aee|"D"Aff "G"Agg|"D"fed "A"edc|"D"d2d dcB:|
|:"Dm"A=ff fef|A=ff fef|A=ff Agg|Aaa "Bb"A_bb|
"Dm"A=ff fef|A=ff f2g|=fed "A"ed^c|1 "Dm"d2d d=c_B:|2 "D"d2d d2e|
|:"D"fgf "A"edc|"D"dAA "(G)"BAG|"D"FED "A"EDC|"D"DA,B, CDE|
Ddd "A"Aee|"D"Aff "G"Agg|"D"fed "A"edc|1 "D"d2d d2e:|2 "D"d2d dcB||

